X:1
T:Keep on Praying (Smith)
T:Keep on Praying (Smith)
T:Joseph Lincoln Hall
T:Robert O. Smith, 1899
T:Public Domain Courtesy of the Cyber Hymnal™
T:Public Domain Courtesy of the Cyber Hymnal™
C:Joseph Lincoln Hall
Z:Public Domain
Z:Courtesy of the Cyber Hymnal™
%%score ( 1 2 ) ( 3 4 )
L:1/8
Q:1/4=107
M:4/4
K:Eb
V:1 treble 
V:2 treble 
V:3 bass 
V:4 bass 
V:1
 B3 G E2 [DF]2 | [EG]2 [EB]2 [EB]4 | [EG]4 [DF]4 | [DF]2 E6 | B3 G E2 [DF]2 | [EG]2 [EB]2 [EB]4 | %6
w: 1.~Tho’ the foes of|right op- press,|Keep on|pray- ing;|Christ, the Lord, is|near to bless,|
w: 2.~Christ- ian, has your|faith grown weak?|Keep on|pray- ing;|Do the tears roll|down your cheek?|
w: 3.~Pil- grim, have you|wea- ry grown?|Keep on|pray- ing,|God is yet up-|on His throne,|
w: 4.~Prais- es shall with|prayers as- cend|Keep on|pray- ing;|Pray and praise till|life shall end,|
 [DF]4 [Fd]4 | [Ec]2 [DB]6 | [Ad]3 [Ad] [Ac]2 [Ad]2 | [Gc]2 [GB]2 [EG]4 | [Ec]3 [Ec] [Ee]2 [Ec]2 | %11
w: All pre-|vail- ing.|Let not fear your|heart ap- pall,|Naught of e- vil|
w: Keep on|pray- ing.|Soon you nev- er|more will sigh,|Tears no more shall|
w: Keep on|pray- ing.|He will hear your|faith- ful cry,|He to help is|
w: Keep on|pray- ing.|Till you reach the|gold- en gate,|Where the ran- somed|
 [Ec]2 [EB]2 [EB]4 | E3 F G2 A2 | [GB]2 [Ge]2 [Ac]4 | [GB]4 [EG]4 | [DF]2 E6 || %16
w: can be- fall,|Stron- ger is your|God than all;|Keep on|pray- ing.|
w: dim your eye,|Pray to Him who’s|al- ways nigh,|Ne- ver|fail- ing.|
w: ev- er nigh,|You shall con- quer|by and by,|Keep on|pray- ing.|
w: souls a- wait,|Claim- ing there your|tri- umph great,|Keep on|pray- ing.|
"^Refrain" [EG]4 [DF]4 | E2 [EB]6 | [Ec]4 [Ee]4 | [Ac]2 [GB]6 | E3 F G2 A2 | [GB]2 [Ge]2 [Ac]4 | %22
w: ||||||
w: ||||||
w: ||||||
w: ||||||
 [GB]4 [EG]4 | [DF]2 E6 |] %24
w: ||
w: ||
w: ||
w: ||
V:2
 B3 G E2 x2 | x8 | x8 | x2 E6 | B3 G E2 x2 | x8 | x8 | x8 | x8 | x8 | x8 | x8 | E3 F G2 A2 | x8 | %14
 x8 | x2 E6 || x8 | E2 x6 | x8 | x8 | E3 F G2 A2 | x8 | x8 | x2 E6 |] %24
V:3
 B,3 G, E,2 [B,,B,]2 | [E,B,]2 [E,G,]2 [E,G,]4 | [E,B,]4 [B,,A,]4 | [F,A,]2 [E,G,]6 | %4
w: ~ ~ ~ ~|~ ~ ~|~ ~|~ ~|
 B,3 G, E,2 [B,,B,]2 | [E,B,]2 [E,G,]2 [E,G,]4 | [F,B,]4 [F,B,]4 | [F,=A,]2 [B,,B,]6 | %8
w: ~ ~ ~ ~|~ ~ ~|~ ~|~ ~|
 [B,,B,]3 [B,,B,] [B,,B,]2 [B,,B,]2 | [E,B,]2 [E,B,]2 [E,B,]4 | A,3 A, [A,C]2 A,2 | %11
w: ~ ~ ~ ~|~ ~ ~|~ ~ ~ ~|
 [E,A,]2 [E,G,]2 [E,G,]4 | E,3 F, G,2 A,2 | [E,E]2 [E,E]2 [A,E]4 | [B,E]4 B,4 | [B,,A,]2 [E,G,]6 || %16
w: ~ ~ ~|~ ~ ~ ~|~ ~ ~|~ ~|~ ~|
 [E,B,]4 [B,,A,]4 | [E,G,]2 [E,G,]6 | A,4 [A,C]4 | [E,E]2 [E,E]6 | E,3 F, G,2 A,2 | %21
w: Keep on|pray- ing,|Keep on|pray- ing,|Thro’ the Sav- ior’s|
 [E,E]2 [E,E]2 [A,E]4 | [B,E]4 B,4 | [B,,A,]2 [E,G,]6 |] %24
w: bless- èd name,|All pre-|vail- ing.|
V:4
 B,3 G, E,2 x2 | x8 | x8 | x8 | B,3 G, E,2 x2 | x8 | x8 | x8 | x8 | x8 | A,3 A, x A,2 x | x8 | %12
 E,3 F, G,2 A,2 | x8 | x4 B,4 | x8 || x8 | x8 | A,4 x4 | x8 | E,3 F, G,2 A,2 | x8 | x4 B,4 | x8 |] %24

